Sources/FrostedUI/Resources/Icons.xcassets/globeInSquare20.imageset/globe-in-square-20.svg

<svg width="20" height="20" viewBox="0 0 20 20" fill="none" xmlns="http://www.w3.org/2000/svg" data-fui-icon="true">
  <path
    d="M16.75 1C18.2688 1 19.5 2.23122 19.5 3.75V16.25C19.5 17.7688 18.2688 19 16.75 19H3.25C1.73122 19 0.5 17.7688 0.5 16.25V3.75C0.5 2.23122 1.73122 1 3.25 1H16.75ZM3.25 2.5C2.55964 2.5 2 3.05964 2 3.75V16.25C2 16.9404 2.55964 17.5 3.25 17.5H16.75C17.4404 17.5 18 16.9404 18 16.25V3.75C18 3.05964 17.4404 2.5 16.75 2.5H3.25ZM10 4.25C13.1756 4.25 15.75 6.82436 15.75 10C15.75 13.1756 13.1756 15.75 10 15.75C6.82436 15.75 4.25 13.1756 4.25 10C4.25 6.82436 6.82436 4.25 10 4.25ZM9.01758 10.75C9.04962 11.4256 9.12403 12.0416 9.22949 12.5508C9.24305 12.6162 9.25692 12.6803 9.27148 12.7422C9.45385 13.5166 9.71304 14 10 14C10.287 14 10.5462 13.5166 10.7285 12.7422C10.7431 12.6803 10.7569 12.6162 10.7705 12.5508C10.876 12.0416 10.9504 11.4256 10.9824 10.75H9.01758ZM5.81641 10.75C6.04844 12.053 6.87407 13.1507 8.00391 13.7529C7.93862 13.5666 7.88406 13.3771 7.83789 13.1924C7.66591 12.5045 7.55486 11.6591 7.51562 10.75H5.81641ZM12.4844 10.75C12.4451 11.6591 12.3341 12.5045 12.1621 13.1924C12.1159 13.3771 12.0614 13.5666 11.9961 13.7529C13.1259 13.1507 13.9516 12.053 14.1836 10.75H12.4844ZM8.00391 6.24707C6.87407 6.84933 6.04844 7.94697 5.81641 9.25H7.51562C7.55486 8.3409 7.66591 7.49553 7.83789 6.80762C7.88406 6.62294 7.93862 6.43345 8.00391 6.24707ZM10 6C9.71304 6 9.45385 6.48338 9.27148 7.25781C9.25692 7.31966 9.24305 7.38376 9.22949 7.44922C9.12403 7.95842 9.04962 8.57438 9.01758 9.25H10.9824C10.9504 8.57438 10.876 7.95842 10.7705 7.44922C10.7569 7.38376 10.7431 7.31966 10.7285 7.25781C10.5462 6.48338 10.287 6 10 6ZM11.9961 6.24707C12.0614 6.43345 12.1159 6.62294 12.1621 6.80762C12.3341 7.49553 12.4451 8.3409 12.4844 9.25H14.1836C13.9516 7.94697 13.1259 6.84933 11.9961 6.24707Z"
    fill="currentColor"
  />
</svg>

<svg xmlns="http://www.w3.org/2000/svg" width="20" height="20" fill="none" data-fui-icon="true" viewBox="0 0 20 20"><path fill="currentColor" d="M16.75 1a2.75 2.75 0 0 1 2.75 2.75v12.5A2.75 2.75 0 0 1 16.75 19H3.25A2.75 2.75 0 0 1 .5 16.25V3.75A2.75 2.75 0 0 1 3.25 1zM3.25 2.5C2.56 2.5 2 3.06 2 3.75v12.5c0 .69.56 1.25 1.25 1.25h13.5c.69 0 1.25-.56 1.25-1.25V3.75c0-.69-.56-1.25-1.25-1.25zM10 4.25a5.75 5.75 0 1 1 0 11.5 5.75 5.75 0 0 1 0-11.5m-.982 6.5c.032.676.106 1.292.211 1.8l.042.192C9.454 13.517 9.713 14 10 14s.546-.483.729-1.258l.042-.191c.105-.51.18-1.125.211-1.801zm-3.202 0a4.26 4.26 0 0 0 2.188 3.003 6 6 0 0 1-.166-.56c-.172-.688-.283-1.534-.322-2.443zm6.668 0c-.039.91-.15 1.755-.322 2.442a6 6 0 0 1-.166.56 4.26 4.26 0 0 0 2.188-3.002zm-4.48-4.503A4.26 4.26 0 0 0 5.816 9.25h1.7c.039-.91.15-1.754.322-2.442.046-.185.1-.375.166-.56M10 6c-.287 0-.546.483-.729 1.258l-.042.191c-.105.51-.18 1.125-.211 1.801h1.964a12 12 0 0 0-.211-1.8l-.043-.192C10.547 6.483 10.288 6 10 6m1.996.247c.065.186.12.376.166.56.172.689.283 1.534.322 2.443h1.7a4.26 4.26 0 0 0-2.188-3.003"/></svg>
